src/assets/filled/GasStation.svg

<?xml version="1.0" encoding="UTF-8"?>
<svg width="24" height="24" viewBox="0 0 24 24" xmlns="http://www.w3.org/2000/svg">
 <path d="m22.34 9.33-2-1c-0.37-0.18-0.83-0.04-1.01 0.33-0.19 0.38-0.04 0.83 0.33 1.01l1.59 0.79v4.79l-3.75 0.01v-10.26c0-2-1.34-3-3-3h-8c-1.66 0-3 1-3 3v16.25h-1.5c-0.41 0-0.75 0.34-0.75 0.75s0.34 0.75 0.75 0.75h17c0.41 0 0.75-0.34 0.75-0.75s-0.34-0.75-0.75-0.75h-1.5v-4.49l4.5-0.01c0.42 0 0.75-0.34 0.75-0.75v-6c0-0.28-0.16-0.54-0.41-0.67zm-16.34-2.44c0-1.39 0.85-1.89 1.89-1.89h5.23c1.03 0 1.88 0.5 1.88 1.89v1.23c0 1.38-0.85 1.88-1.89 1.88h-5.22c-1.04 0-1.89-0.5-1.89-1.89v-1.22zm0.5 5.36h3c0.41 0 0.75 0.34 0.75 0.75s-0.34 0.75-0.75 0.75h-3c-0.41 0-0.75-0.34-0.75-0.75s0.34-0.75 0.75-0.75z"/>
</svg>

<svg width="24" height="24" viewBox="0 0 24 24"  xmlns="http://www.w3.org/2000/svg">
<path d="M22.34 9.33L20.34 8.33C19.97 8.15 19.51 8.29 19.33 8.66C19.14 9.04 19.29 9.49 19.66 9.67L21.25 10.46V15.25L17.5 15.26V5C17.5 3 16.16 2 14.5 2H6.5C4.84 2 3.5 3 3.5 5V21.25H2C1.59 21.25 1.25 21.59 1.25 22C1.25 22.41 1.59 22.75 2 22.75H19C19.41 22.75 19.75 22.41 19.75 22C19.75 21.59 19.41 21.25 19 21.25H17.5V16.76L22 16.75C22.42 16.75 22.75 16.41 22.75 16V10C22.75 9.72 22.59 9.46 22.34 9.33ZM6 6.89C6 5.5 6.85 5 7.89 5H13.12C14.15 5 15 5.5 15 6.89V8.12C15 9.5 14.15 10 13.11 10H7.89C6.85 10 6 9.5 6 8.11V6.89ZM6.5 12.25H9.5C9.91 12.25 10.25 12.59 10.25 13C10.25 13.41 9.91 13.75 9.5 13.75H6.5C6.09 13.75 5.75 13.41 5.75 13C5.75 12.59 6.09 12.25 6.5 12.25Z" />
</svg>
